X:1
T:High Reel, The
R:Reel
M:C|
%%printtempo 0
Q:140
K:D
"A"a2 ed cA A2|cded cAA2|"A"a2 ed cA A2|"G"Bcdc BGG2|
"A"a2 ed cA A2|cdef "G"g2fg|"D"af (3gfe fded|"G"Bcdc BGG2:|
|:"A"(3cBA eA fAeA|cAaf ecAB|"A"(3cBA eA fAeA|"G"Bcdc BAGB|
"A"(3cBA eA fAeA|cdef "G"g2fg|"D"af (3gfe fded|"G"Bcdc BGG2:|
